{"type":"map","version":"1.10","tiledversion":"1.10.2","orientation":"orthogonal","renderorder":"right-down","infinite":false,"width":41,"height":28,"tilewidth":32,"tileheight":32,"nextlayerid":5,"nextobjectid":16,"backgroundcolor":"#1d1b26","properties":[{"name":"mapName","type":"string","value":"4th Floor"},{"name":"generator","type":"string","value":"werk-mapgen"}],"layers":[{"id":1,"name":"floor","type":"tilelayer","x":0,"y":0,"width":41,"height":28,"opacity":1,"visible":true,"data":[0,0,0,0,0,0,0,0,0,0,0,0,0,0,0,0,0,0,0,0,0,0,0,0,0,0,0,0,0,0,0,0,0,0,0,0,0,0,0,0,0,0,0,0,0,0,0,0,0,0,0,0,0,0,0,0,0,0,0,0,0,0,0,0,0,0,0,1,1,1,1,0,1,1,1,1,1,1,0,0,0,0,0,0,0,0,0,0,0,0,0,0,0,0,0,0,0,0,0,0,0,0,0,0,0,0,0,0,1,1,1,1,0,1,1,1,1,1,1,0,0,0,0,0,0,0,0,0,0,0,0,0,0,0,0,0,0,0,0,0,0,0,0,0,0,0,0,0,0,1,1,1,1,0,1,1,1,1,1,1,0,0,0,0,0,0,0,0,0,0,0,0,0,0,0,0,0,0,0,0,0,0,0,0,0,0,0,0,0,0,1,1,1,1,0,1,1,1,1,1,1,0,0,0,0,0,0,0,0,0,0,0,0,0,0,0,0,0,0,0,0,0,0,0,0,0,0,0,0,0,0,1,1,1,1,0,1,1,1,1,1,1,0,0,0,0,0,0,0,0,0,0,0,0,0,0,0,0,0,0,0,0,0,0,0,0,0,0,0,0,0,0,1,1,1,1,0,1,1,1,1,1,1,1,1,1,0,0,0,0,0,0,0,0,0,0,0,0,0,0,0,0,0,0,0,0,0,0,0,0,0,0,0,1,1,1,1,1,1,1,1,1,1,1,1,1,1,0,0,0,0,0,0,0,0,0,0,0,0,0,0,0,0,0,0,0,0,0,0,0,0,0,0,0,1,1,1,1,0,0,0,0,0,0,0,0,0,0,0,0,0,0,0,0,0,0,0,0,0,0,0,0,0,0,0,0,0,0,0,0,0,0,0,0,0,1,1,1,1,0,1,1,1,1,1,1,1,1,1,0,0,0,0,0,0,0,0,0,0,0,0,0,0,0,0,0,0,0,0,0,0,0,0,0,0,0,1,1,1,1,0,1,1,1,1,1,1,1,1,1,0,0,0,0,0,0,0,0,0,0,0,0,0,0,0,0,0,0,0,0,0,0,0,2,2,2,2,2,1,1,1,0,1,1,1,1,1,1,1,1,1,0,0,0,0,0,0,0,0,0,0,0,0,0,0,0,0,0,0,0,0,0,0,0,2,2,2,2,2,1,1,1,0,1,1,1,1,1,1,1,1,1,0,0,0,0,0,0,0,0,0,0,0,0,0,0,0,0,0,0,0,0,0,0,0,2,2,2,2,2,1,1,1,0,1,1,1,1,1,1,1,1,1,0,0,0,0,0,0,0,0,0,0,1,1,1,1,1,1,1,1,1,1,1,1,1,2,2,2,2,2,1,1,1,0,1,1,1,1,1,1,1,1,1,0,0,0,0,0,0,0,0,0,0,1,1,1,1,1,1,1,1,1,1,1,1,1,1,1,1,1,1,1,1,1,1,1,1,1,1,1,1,1,1,1,0,0,0,0,0,0,0,0,0,0,1,1,1,1,1,1,1,1,1,1,1,1,1,1,1,1,1,1,1,1,1,1,1,1,1,1,1,1,1,1,1,0,0,0,0,0,0,0,0,0,0,1,1,1,1,1,1,1,1,1,1,1,1,1,1,1,1,1,1,1,1,1,0,3,3,3,3,3,3,3,3,3,0,0,1,1,1,1,1,1,1,1,1,1,1,1,1,1,1,1,1,1,1,1,1,1,1,1,1,1,1,1,1,0,3,3,3,3,3,3,3,3,3,0,0,1,1,1,1,1,1,1,1,1,1,1,1,1,1,1,4,4,4,4,4,4,4,4,4,0,0,0,0,0,0,3,3,3,3,3,3,3,3,3,0,0,1,1,1,1,1,1,1,1,1,1,1,1,1,4,4,4,4,4,4,4,4,4,4,4,0,3,3,3,3,3,3,3,3,3,3,3,0,0,0,0,0,1,1,1,1,1,1,1,1,1,1,1,4,4,4,4,4,4,4,4,4,4,4,4,4,0,3,3,3,3,3,3,3,3,3,3,3,0,0,0,0,0,1,1,1,1,1,1,1,1,1,4,4,4,4,4,4,4,4,4,4,4,4,4,4,4,0,3,3,3,3,3,3,3,3,3,3,3,0,0,0,0,0,1,1,1,1,1,1,1,4,4,4,4,4,4,4,4,4,4,4,4,4,4,4,4,4,0,3,3,3,3,3,3,3,3,3,3,3,0,0,0,0,0,1,1,1,1,1,4,4,4,4,4,4,4,4,4,4,4,4,4,4,4,4,4,4,4,0,3,3,3,3,3,3,3,3,3,3,3,0,0,0,0,0,0,0,0,0,4,4,4,4,4,4,4,4,4,4,4,4,4,4,4,4,4,4,4,4,0,3,3,3,3,3,3,3,0,0,0,0,0,0,0,0,0,0,0,0,0,4,4,4,4,4,4,4,4,4,4,4,4,4,4,4,4,4,4,4,4,0,3,3,3,3,3,3,3,0,0,0,0,0,0,0,0,0,0,0,0,0,0,0,0,0,0,0,0,0,0,0,0,0,0,0,0,0,0,0,0,0,0,0,0,0,0,0,0,0,0,0,0,0,0,0,0,0]},{"id":2,"name":"walls","type":"tilelayer","x":0,"y":0,"width":41,"height":28,"opacity":1,"visible":true,"data":[0,0,0,0,0,0,0,0,0,0,0,0,0,0,0,0,0,0,0,0,0,0,0,0,0,7,8,8,8,8,7,8,8,8,8,8,8,7,0,0,0,0,0,0,0,0,0,0,0,0,0,0,0,0,0,0,0,0,0,0,0,0,0,0,0,0,7,0,0,0,0,7,0,0,0,0,0,0,7,0,0,0,0,0,0,0,0,0,0,0,0,0,0,0,0,0,0,0,0,0,0,0,0,0,0,0,0,7,0,0,0,0,7,0,0,0,0,0,0,7,0,0,0,0,0,0,0,0,0,0,0,0,0,0,0,0,0,0,0,0,0,0,0,0,0,0,0,0,7,0,0,0,0,7,0,0,0,0,0,0,7,0,0,0,0,0,0,0,0,0,0,0,0,0,0,0,0,0,0,0,0,0,0,0,0,0,0,0,0,7,0,0,0,0,7,0,0,0,0,0,0,7,0,0,0,0,0,0,0,0,0,0,0,0,0,0,0,0,0,0,0,0,0,0,0,0,0,0,0,0,7,0,0,0,0,7,0,0,0,0,0,0,8,8,8,7,0,0,0,0,0,0,0,0,0,0,0,0,0,0,0,0,0,0,0,0,0,0,0,0,0,7,0,0,0,0,8,0,0,0,0,0,0,0,0,0,7,0,0,0,0,0,0,0,0,0,0,0,0,0,0,0,0,0,0,0,0,0,0,0,0,0,7,0,0,0,0,0,0,0,0,0,0,0,0,0,0,7,0,0,0,0,0,0,0,0,0,0,0,0,0,0,0,0,0,0,0,0,0,0,0,0,0,7,0,0,0,0,7,8,8,8,8,8,8,8,8,8,7,0,0,0,0,0,0,0,0,0,0,0,0,0,0,0,0,0,0,0,0,0,0,0,0,0,7,0,0,0,0,7,0,0,0,0,0,0,0,0,0,7,0,0,0,0,0,0,0,0,0,0,0,0,0,0,0,0,0,0,0,0,0,7,8,8,8,8,0,0,0,0,7,0,0,0,0,0,0,0,0,0,7,0,0,0,0,0,0,0,0,0,0,0,0,0,0,0,0,0,0,0,0,0,7,0,0,0,0,0,0,0,0,7,0,0,0,0,0,0,0,0,0,7,0,0,0,0,0,0,0,0,0,0,0,0,0,0,0,0,0,0,0,0,0,7,0,0,0,0,0,0,0,0,7,0,0,0,0,0,0,0,0,0,7,0,0,0,0,0,0,0,0,7,8,8,8,8,8,8,8,8,8,8,8,8,8,0,0,0,0,0,0,0,0,7,0,0,0,0,0,0,0,0,0,7,0,0,0,0,0,0,0,0,7,0,0,0,0,0,0,0,0,0,0,0,0,0,0,0,0,0,0,0,0,0,8,0,0,0,0,0,0,0,0,0,7,0,0,0,0,0,0,0,0,7,0,0,0,0,0,0,0,0,0,0,0,0,0,0,0,0,0,0,0,0,0,0,0,0,0,0,0,0,0,0,0,7,0,0,0,0,0,0,0,0,7,0,0,0,0,0,0,0,0,0,0,0,0,0,0,0,0,0,0,0,0,0,0,0,0,0,0,0,0,0,0,0,7,7,8,8,8,8,8,8,8,8,0,0,0,0,0,0,0,0,0,0,0,0,0,0,0,0,0,0,0,0,0,7,0,0,0,0,0,0,0,0,0,7,7,0,0,0,0,0,0,0,0,0,0,0,0,0,0,0,0,0,0,0,0,0,0,0,0,0,0,0,0,0,7,0,0,0,0,0,0,0,0,0,7,7,0,0,0,0,0,0,0,0,0,0,0,0,0,0,0,0,0,0,0,0,0,0,0,0,7,8,8,8,8,8,0,0,0,0,0,0,0,0,0,7,7,0,0,0,0,0,0,0,0,0,0,0,0,0,0,0,0,0,0,0,0,0,0,0,0,7,0,0,0,0,0,0,0,0,0,0,0,7,7,7,7,7,0,0,0,0,0,0,0,0,0,0,0,0,0,0,0,0,0,0,0,0,0,0,0,0,7,0,0,0,0,0,0,0,0,0,0,0,7,0,0,0,7,0,0,0,0,0,0,0,0,0,0,0,0,0,0,0,0,0,0,0,0,0,0,0,0,7,0,0,0,0,0,0,0,0,0,0,0,7,0,0,0,7,0,0,0,0,0,0,0,0,0,0,0,0,0,0,0,0,0,0,0,0,0,0,0,0,7,0,0,0,0,0,0,0,0,0,0,0,7,0,0,0,7,0,0,0,0,0,0,0,0,0,0,0,0,0,0,0,0,0,0,0,0,0,0,0,0,7,0,0,0,0,0,0,0,0,0,0,0,7,0,0,0,7,7,7,7,7,0,0,0,0,0,0,0,0,0,0,0,0,0,0,0,0,0,0,0,0,7,0,0,0,0,0,0,0,7,7,7,7,7,0,0,0,0,0,0,0,7,0,0,0,0,0,0,0,0,0,0,0,0,0,0,0,0,0,0,0,0,7,0,0,0,0,0,0,0,7,0,0,0,0,0,0,0,0,0,0,0,7,7,7,7,7,7,7,7,7,7,7,7,7,7,7,7,7,7,7,7,7,7,7,7,7,7,7,7,7,7,0,0,0,0,0,0,0]},{"id":3,"name":"furniture","type":"tilelayer","x":0,"y":0,"width":41,"height":28,"opacity":1,"visible":true,"data":[0,0,0,0,0,0,0,0,0,0,0,0,0,0,0,0,0,0,0,0,0,0,0,0,0,0,0,0,0,0,0,0,0,0,0,0,0,0,0,0,0,0,0,0,0,0,0,0,0,0,0,0,0,0,0,0,0,0,0,0,0,0,0,0,0,0,0,14,0,0,0,0,0,0,0,0,0,0,0,0,0,0,0,0,0,0,0,0,0,0,0,0,0,0,0,0,0,0,0,0,0,0,0,0,0,0,0,0,0,0,0,0,0,0,0,0,13,13,0,0,0,0,0,0,0,0,0,0,0,0,0,0,0,0,0,0,0,0,0,0,0,0,0,0,0,0,0,0,0,0,0,0,0,0,0,0,25,33,33,31,0,0,0,0,0,0,0,0,0,0,0,0,0,0,0,0,0,0,0,0,0,0,0,0,0,0,0,0,0,0,0,0,0,0,0,0,13,22,30,30,28,0,0,0,0,0,0,0,0,0,0,0,0,0,0,0,0,0,0,0,0,0,0,0,0,0,0,0,0,0,0,0,0,0,0,0,0,0,0,13,13,0,0,0,0,0,0,0,0,0,0,0,0,0,0,0,0,0,0,0,0,0,0,0,0,0,0,0,0,0,0,0,0,0,0,0,0,0,0,0,0,0,0,0,0,0,0,0,0,0,0,0,0,0,0,0,0,0,0,0,0,0,0,0,0,0,0,0,0,0,0,0,0,0,0,0,0,0,0,0,0,0,0,0,0,0,0,0,0,0,0,0,0,0,0,0,0,0,0,0,0,0,0,0,0,0,0,0,0,0,0,0,0,0,0,0,0,0,0,0,0,0,0,0,0,0,0,0,0,0,0,0,0,0,0,0,0,0,0,0,0,0,0,0,0,0,0,0,0,0,0,0,0,0,0,0,0,0,0,0,0,0,0,0,12,12,0,0,0,0,0,0,0,0,0,0,0,0,0,0,0,0,0,0,0,0,0,0,0,0,0,0,0,0,0,0,0,0,0,0,0,0,0,0,0,13,0,0,0,0,0,0,0,0,0,0,0,0,0,0,0,0,0,0,0,0,0,0,0,0,0,0,0,0,0,0,0,0,0,0,0,0,12,0,0,0,0,0,0,0,0,0,0,0,0,0,0,0,0,0,0,0,0,0,0,0,0,0,0,0,0,0,0,0,0,0,0,0,0,0,0,0,0,12,13,0,0,0,0,0,0,0,0,0,0,0,0,0,0,0,0,0,0,0,0,0,0,0,0,0,0,0,0,0,0,0,0,0,0,0,0,0,0,0,0,0,0,0,0,0,0,0,0,0,0,0,0,0,0,0,0,0,0,0,0,0,0,0,0,0,0,0,0,0,0,0,0,0,0,0,0,0,0,0,0,0,0,0,0,0,0,0,0,0,0,0,0,0,0,0,0,0,0,0,0,0,0,0,0,0,0,0,0,0,0,0,0,0,0,0,0,0,0,0,0,0,0,0,0,0,13,0,0,0,0,0,0,0,0,0,0,0,0,0,0,0,0,0,0,0,0,0,0,0,0,0,0,0,0,0,0,0,0,0,0,0,0,0,0,0,0,12,12,0,0,0,0,0,0,0,0,0,0,0,0,0,0,0,0,0,0,0,0,0,0,0,0,0,0,0,0,0,0,0,0,0,0,0,0,0,0,0,0,0,0,0,0,0,0,0,0,0,0,0,0,0,0,0,0,0,0,0,0,0,0,0,0,0,0,0,0,0,0,0,0,0,0,0,0,0,0,0,0,0,0,0,0,0,0,0,13,13,13,0,0,0,0,0,0,0,0,0,0,0,0,0,0,0,0,0,0,0,0,0,0,0,0,0,0,0,0,0,0,0,0,0,0,0,14,0,0,25,33,31,0,0,0,0,0,0,0,0,0,0,0,12,0,0,12,0,0,0,0,12,0,0,0,12,0,0,0,0,0,0,0,12,12,0,0,0,0,0,22,30,28,0,0,0,0,0,0,0,0,0,0,0,13,0,0,13,0,0,0,0,13,0,0,0,13,0,0,0,0,0,0,0,13,0,0,0,0,0,0,13,13,13,0,0,0,0,0,0,0,0,0,0,0,0,0,0,0,0,0,0,0,0,0,0,0,0,0,0,0,0,0,0,0,12,12,0,0,0,0,0,0,0,0,0,0,0,0,0,0,0,0,0,0,0,0,0,0,0,0,0,0,0,0,0,0,0,0,0,0,0,0,0,0,0,13,0,0,0,0,0,0,14,0,0,0,0,0,13,0,0,13,0,0,0,0,13,0,0,13,0,0,0,0,13,0,0,0,13,0,0,13,0,0,0,0,0,0,0,0,0,0,0,0,0,0,0,0,0,12,0,0,12,0,0,0,0,12,0,0,12,0,0,0,0,12,0,0,0,12,0,0,12,0,0,0,0,0,0,0,0,0,0,0,0,0,0,0,0,0,0,0,0,0,0,0,0,0,0,0,0,0,0,0,0,0,0,0,0,0,0,0,0,0,0,0,0,0,0,0,0,0,0,0,0,0,0,0,0,0,0,0,0,0,0,0,0,0,0,0,0,0,0,0,0,0,0,0,0,0,0,0,0,0,0,0,0,0,0,0,0,0,0,0,0]},{"id":4,"name":"areas","type":"objectgroup","draworder":"topdown","opacity":1,"visible":true,"x":0,"y":0,"objects":[{"id":1,"name":"start","type":"area","x":288,"y":512,"width":32,"height":32,"rotation":0,"visible":true,"properties":[{"name":"start","type":"bool","value":true}]},{"id":2,"name":"Meeting room","type":"area","x":992,"y":32,"width":192,"height":160,"rotation":0,"visible":true,"properties":[{"name":"areaName","type":"string","value":"Meeting room"},{"name":"livekitRoom","type":"string","value":"meeting-4f"}]},{"id":3,"name":"Teams","type":"area","x":704,"y":352,"width":160,"height":128,"rotation":0,"visible":true,"properties":[{"name":"areaName","type":"string","value":"Teams"},{"name":"livekitRoom","type":"string","value":"teams-4f"}]},{"id":4,"name":"Architecture","type":"area","x":992,"y":288,"width":288,"height":256,"rotation":0,"visible":true,"properties":[{"name":"areaName","type":"string","value":"Architecture"}]},{"id":5,"name":"Green desks","type":"area","x":992,"y":544,"width":288,"height":96,"rotation":0,"visible":true,"properties":[{"name":"areaName","type":"string","value":"Green desks"}]},{"id":6,"name":"Green desks","type":"area","x":832,"y":640,"width":352,"height":160,"rotation":0,"visible":true,"properties":[{"name":"areaName","type":"string","value":"Green desks"}]},{"id":7,"name":"Green desks","type":"area","x":832,"y":800,"width":224,"height":64,"rotation":0,"visible":true,"properties":[{"name":"areaName","type":"string","value":"Green desks"}]},{"id":8,"name":"Pink desks","type":"area","x":512,"y":608,"width":288,"height":32,"rotation":0,"visible":true,"properties":[{"name":"areaName","type":"string","value":"Pink desks"}]},{"id":9,"name":"Pink desks","type":"area","x":448,"y":640,"width":352,"height":32,"rotation":0,"visible":true,"properties":[{"name":"areaName","type":"string","value":"Pink desks"}]},{"id":10,"name":"Pink desks","type":"area","x":384,"y":672,"width":416,"height":32,"rotation":0,"visible":true,"properties":[{"name":"areaName","type":"string","value":"Pink desks"}]},{"id":11,"name":"Pink desks","type":"area","x":320,"y":704,"width":480,"height":32,"rotation":0,"visible":true,"properties":[{"name":"areaName","type":"string","value":"Pink desks"}]},{"id":12,"name":"Pink desks","type":"area","x":256,"y":736,"width":544,"height":32,"rotation":0,"visible":true,"properties":[{"name":"areaName","type":"string","value":"Pink desks"}]},{"id":13,"name":"Pink desks","type":"area","x":192,"y":768,"width":608,"height":32,"rotation":0,"visible":true,"properties":[{"name":"areaName","type":"string","value":"Pink desks"}]},{"id":14,"name":"Pink desks","type":"area","x":160,"y":800,"width":640,"height":64,"rotation":0,"visible":true,"properties":[{"name":"areaName","type":"string","value":"Pink desks"}]},{"id":15,"name":"Shared desks","type":"area","x":32,"y":608,"width":96,"height":128,"rotation":0,"visible":true,"properties":[{"name":"areaName","type":"string","value":"Shared desks"}]}]}],"tilesets":[{"firstgid":1,"name":"werk-office","image":"../tilesets/werk-office.png","imagewidth":256,"imageheight":224,"tilewidth":32,"tileheight":32,"columns":8,"tilecount":50,"margin":0,"spacing":0,"tiles":[{"id":6,"properties":[{"name":"collides","type":"bool","value":true}]},{"id":7,"properties":[{"name":"collides","type":"bool","value":true}]},{"id":8,"properties":[{"name":"collides","type":"bool","value":true}]},{"id":9,"properties":[{"name":"collides","type":"bool","value":true}]},{"id":11,"properties":[{"name":"collides","type":"bool","value":true}]},{"id":13,"properties":[{"name":"collides","type":"bool","value":true}]},{"id":14,"properties":[{"name":"collides","type":"bool","value":true}]},{"id":15,"properties":[{"name":"collides","type":"bool","value":true}]},{"id":17,"properties":[{"name":"collides","type":"bool","value":true}]},{"id":18,"properties":[{"name":"collides","type":"bool","value":true}]},{"id":19,"properties":[{"name":"collides","type":"bool","value":true}]},{"id":20,"properties":[{"name":"collides","type":"bool","value":true}]},{"id":21,"properties":[{"name":"collides","type":"bool","value":true}]},{"id":22,"properties":[{"name":"collides","type":"bool","value":true}]},{"id":23,"properties":[{"name":"collides","type":"bool","value":true}]},{"id":24,"properties":[{"name":"collides","type":"bool","value":true}]},{"id":25,"properties":[{"name":"collides","type":"bool","value":true}]},{"id":26,"properties":[{"name":"collides","type":"bool","value":true}]},{"id":27,"properties":[{"name":"collides","type":"bool","value":true}]},{"id":28,"properties":[{"name":"collides","type":"bool","value":true}]},{"id":29,"properties":[{"name":"collides","type":"bool","value":true}]},{"id":30,"properties":[{"name":"collides","type":"bool","value":true}]},{"id":31,"properties":[{"name":"collides","type":"bool","value":true}]},{"id":32,"properties":[{"name":"collides","type":"bool","value":true}]},{"id":33,"properties":[{"name":"collides","type":"bool","value":true}]},{"id":34,"properties":[{"name":"collides","type":"bool","value":true}]},{"id":35,"properties":[{"name":"collides","type":"bool","value":true}]},{"id":36,"properties":[{"name":"collides","type":"bool","value":true}]},{"id":37,"properties":[{"name":"collides","type":"bool","value":true}]},{"id":38,"properties":[{"name":"collides","type":"bool","value":true}]},{"id":39,"properties":[{"name":"collides","type":"bool","value":true}]},{"id":40,"properties":[{"name":"collides","type":"bool","value":true}]},{"id":41,"properties":[{"name":"collides","type":"bool","value":true}]},{"id":42,"properties":[{"name":"collides","type":"bool","value":true}]},{"id":43,"properties":[{"name":"collides","type":"bool","value":true}]},{"id":44,"properties":[{"name":"collides","type":"bool","value":true}]},{"id":45,"properties":[{"name":"collides","type":"bool","value":true}]},{"id":46,"properties":[{"name":"collides","type":"bool","value":true}]},{"id":47,"properties":[{"name":"collides","type":"bool","value":true}]},{"id":48,"properties":[{"name":"collides","type":"bool","value":true}]},{"id":49,"properties":[{"name":"collides","type":"bool","value":true}]}]}]}