{"type":"map","version":"1.10","tiledversion":"1.10.2","orientation":"orthogonal","renderorder":"right-down","infinite":false,"width":30,"height":15,"tilewidth":32,"tileheight":32,"nextlayerid":5,"nextobjectid":6,"backgroundcolor":"#1d1b26","properties":[{"name":"mapName","type":"string","value":"Office — Ground floor"},{"name":"generator","type":"string","value":"werk-mapgen"}],"layers":[{"id":1,"name":"floor","type":"tilelayer","x":0,"y":0,"width":30,"height":15,"opacity":1,"visible":true,"data":[0,0,0,0,0,0,0,0,0,0,0,0,0,0,0,0,0,0,0,0,0,0,0,0,0,0,0,0,0,0,0,1,1,1,1,1,1,1,1,1,1,0,1,1,1,1,1,1,1,1,1,2,2,2,2,2,2,2,2,0,0,1,1,1,1,1,1,1,1,1,1,0,1,1,1,1,1,1,1,1,1,2,2,2,2,2,2,2,2,0,0,1,1,1,1,1,1,1,1,1,1,0,1,1,1,1,1,1,1,1,1,2,2,2,2,2,2,2,2,0,0,1,1,1,1,1,1,1,1,1,1,0,1,1,1,1,1,1,1,1,1,2,2,2,2,2,2,2,2,0,0,1,1,1,1,1,1,1,1,1,1,0,1,1,1,1,1,1,1,1,1,2,2,2,2,2,2,2,2,0,0,1,1,1,1,1,1,1,1,1,1,11,1,1,1,1,1,1,1,1,1,2,2,2,2,2,2,2,2,0,0,1,1,1,1,1,1,1,1,1,1,0,1,1,1,1,1,1,1,1,1,0,0,0,11,11,0,0,0,0,0,1,1,1,1,1,1,1,1,1,1,0,1,1,1,1,1,1,1,1,1,1,1,1,1,1,1,1,1,0,0,0,0,0,0,0,11,11,0,0,0,0,1,1,1,1,1,1,1,1,1,1,1,1,1,1,1,1,1,0,0,5,5,5,5,5,5,5,5,5,5,5,5,5,5,1,1,1,1,1,1,1,1,1,1,1,1,1,1,0,0,5,5,5,5,5,5,5,5,5,5,5,5,5,5,1,1,1,1,1,1,1,1,1,1,1,1,1,1,0,0,5,5,5,17,17,5,5,5,5,5,5,5,5,5,1,1,1,1,1,3,3,3,3,3,3,1,1,1,0,0,5,5,5,17,17,5,5,5,5,5,5,5,5,5,1,1,1,1,1,3,3,3,3,1,3,1,1,1,0,0,0,0,0,0,0,0,0,0,0,0,0,0,0,0,0,0,0,0,0,0,0,0,0,0,0,0,0,0,0]},{"id":2,"name":"walls","type":"tilelayer","x":0,"y":0,"width":30,"height":15,"opacity":1,"visible":true,"data":[7,8,9,9,9,9,8,8,8,8,8,7,9,9,9,9,8,8,8,8,8,10,10,10,10,8,8,8,8,7,7,0,0,0,0,0,0,0,0,0,0,7,0,0,0,0,0,0,0,0,0,0,0,0,0,0,0,0,0,7,7,0,0,0,0,0,0,0,0,0,0,7,0,0,0,0,0,0,0,0,0,0,0,0,0,0,0,0,0,7,7,0,0,0,0,0,0,0,0,0,0,7,0,0,0,0,0,0,0,0,0,0,0,0,0,0,0,0,0,7,7,0,0,0,0,0,0,0,0,0,0,7,0,0,0,0,0,0,0,0,0,0,0,0,0,0,0,0,0,7,7,0,0,0,0,0,0,0,0,0,0,8,0,0,0,0,0,0,0,0,0,0,0,0,0,0,0,0,0,7,7,0,0,0,0,0,0,0,0,0,0,0,0,0,0,0,0,0,0,0,0,0,0,0,0,0,0,0,0,7,7,0,0,0,0,0,0,0,0,0,0,7,0,0,0,0,0,0,0,0,0,8,8,8,0,0,8,8,8,7,7,0,0,0,0,0,0,0,0,0,0,7,0,0,0,0,0,0,0,0,0,0,0,0,0,0,0,0,0,7,7,8,8,8,8,8,0,0,8,8,8,8,0,0,0,0,0,0,0,0,0,0,0,0,0,0,0,0,0,7,7,0,0,0,0,0,0,0,0,0,0,0,0,0,0,0,0,0,0,0,0,0,0,0,0,0,0,0,0,7,7,0,0,0,0,0,0,0,0,0,0,0,0,0,0,0,0,0,0,0,0,0,0,0,0,0,0,0,0,7,7,0,0,0,0,0,0,0,0,0,0,0,0,0,0,0,0,0,0,0,0,0,0,0,0,0,0,0,0,7,7,0,0,0,0,0,0,0,0,0,0,0,0,0,0,0,0,0,0,0,0,0,0,0,0,0,0,0,0,7,7,7,7,7,7,7,7,7,7,7,7,7,7,7,7,7,7,7,7,7,7,7,7,7,7,7,7,7,7,7]},{"id":3,"name":"furniture","type":"tilelayer","x":0,"y":0,"width":30,"height":15,"opacity":1,"visible":true,"data":[0,0,0,0,0,0,0,0,0,0,0,0,0,0,0,0,0,0,0,0,0,0,0,0,0,0,0,0,0,0,0,0,0,0,0,0,0,0,0,0,0,0,0,0,0,0,0,0,0,0,0,0,0,0,0,0,0,0,0,0,0,0,12,12,0,0,12,12,0,0,0,0,0,0,0,0,0,0,0,0,0,0,0,25,33,33,31,0,0,0,0,0,13,13,0,0,13,13,0,0,0,0,0,0,15,0,15,0,0,0,0,0,13,26,34,34,32,13,0,0,0,0,0,0,0,0,0,0,0,0,0,0,0,0,0,0,0,0,0,0,0,0,13,26,34,34,32,13,0,0,0,0,12,12,0,0,12,12,0,0,0,0,0,0,18,37,43,0,0,0,0,0,0,22,30,30,28,0,0,0,0,0,13,13,0,0,13,13,0,0,0,0,0,0,0,0,0,0,0,0,0,0,0,0,0,0,0,0,0,0,0,0,0,0,0,0,0,0,0,0,0,0,0,0,0,0,0,0,0,0,0,0,0,0,0,0,0,0,0,0,0,14,0,0,0,0,0,0,0,0,14,0,0,0,0,0,0,0,0,0,0,0,0,0,0,0,0,0,0,0,0,0,0,0,0,0,0,0,0,0,0,0,0,0,0,0,0,0,0,0,0,0,0,0,0,0,14,0,0,0,0,0,0,0,0,0,0,0,0,0,0,0,0,0,0,0,0,0,0,0,0,0,16,16,16,16,0,0,0,0,0,0,0,0,0,0,0,0,0,0,0,0,0,0,0,0,0,0,0,0,0,0,0,0,0,0,0,0,0,0,0,0,0,0,0,0,0,0,0,0,0,0,0,0,0,0,0,0,0,0,0,0,0,0,0,0,0,0,0,0,0,0,0,0,0,0,0,0,0,0,0,0,0,0,0,0,0,0,0,0,0,0,15,0,15,0,0,0,0,0,0,0,0,0,0,0,0,0,0,0,0,0,0,0,0,0,0,0,0,0,0,0,0,0,0,0,0,0,0,0]},{"id":4,"name":"areas","type":"objectgroup","draworder":"topdown","opacity":1,"visible":true,"x":0,"y":0,"objects":[{"id":1,"name":"start","type":"area","x":480,"y":256,"width":32,"height":32,"rotation":0,"visible":true,"properties":[{"name":"start","type":"bool","value":true}]},{"id":2,"name":"Meeting room","type":"area","x":672,"y":32,"width":256,"height":192,"rotation":0,"visible":true,"properties":[{"name":"areaName","type":"string","value":"Meeting room"},{"name":"livekitRoom","type":"string","value":"meeting-room"}]},{"id":3,"name":"Lounge","type":"area","x":640,"y":384,"width":192,"height":64,"rotation":0,"visible":true,"properties":[{"name":"areaName","type":"string","value":"Lounge"},{"name":"silent","type":"bool","value":true}]},{"id":4,"name":"stairs-up","type":"area","x":128,"y":384,"width":64,"height":64,"rotation":0,"visible":true,"properties":[{"name":"exitUrl","type":"string","value":"floor-1.tmj#stairs-down"}]},{"id":5,"name":"stairs-arrival","type":"area","x":192,"y":384,"width":32,"height":64,"rotation":0,"visible":true,"properties":[]}]}],"tilesets":[{"firstgid":1,"name":"werk-office","image":"../tilesets/werk-office.png","imagewidth":256,"imageheight":224,"tilewidth":32,"tileheight":32,"columns":8,"tilecount":50,"margin":0,"spacing":0,"tiles":[{"id":6,"properties":[{"name":"collides","type":"bool","value":true}]},{"id":7,"properties":[{"name":"collides","type":"bool","value":true}]},{"id":8,"properties":[{"name":"collides","type":"bool","value":true}]},{"id":9,"properties":[{"name":"collides","type":"bool","value":true}]},{"id":11,"properties":[{"name":"collides","type":"bool","value":true}]},{"id":13,"properties":[{"name":"collides","type":"bool","value":true}]},{"id":14,"properties":[{"name":"collides","type":"bool","value":true}]},{"id":15,"properties":[{"name":"collides","type":"bool","value":true}]},{"id":17,"properties":[{"name":"collides","type":"bool","value":true}]},{"id":18,"properties":[{"name":"collides","type":"bool","value":true}]},{"id":19,"properties":[{"name":"collides","type":"bool","value":true}]},{"id":20,"properties":[{"name":"collides","type":"bool","value":true}]},{"id":21,"properties":[{"name":"collides","type":"bool","value":true}]},{"id":22,"properties":[{"name":"collides","type":"bool","value":true}]},{"id":23,"properties":[{"name":"collides","type":"bool","value":true}]},{"id":24,"properties":[{"name":"collides","type":"bool","value":true}]},{"id":25,"properties":[{"name":"collides","type":"bool","value":true}]},{"id":26,"properties":[{"name":"collides","type":"bool","value":true}]},{"id":27,"properties":[{"name":"collides","type":"bool","value":true}]},{"id":28,"properties":[{"name":"collides","type":"bool","value":true}]},{"id":29,"properties":[{"name":"collides","type":"bool","value":true}]},{"id":30,"properties":[{"name":"collides","type":"bool","value":true}]},{"id":31,"properties":[{"name":"collides","type":"bool","value":true}]},{"id":32,"properties":[{"name":"collides","type":"bool","value":true}]},{"id":33,"properties":[{"name":"collides","type":"bool","value":true}]},{"id":34,"properties":[{"name":"collides","type":"bool","value":true}]},{"id":35,"properties":[{"name":"collides","type":"bool","value":true}]},{"id":36,"properties":[{"name":"collides","type":"bool","value":true}]},{"id":37,"properties":[{"name":"collides","type":"bool","value":true}]},{"id":38,"properties":[{"name":"collides","type":"bool","value":true}]},{"id":39,"properties":[{"name":"collides","type":"bool","value":true}]},{"id":40,"properties":[{"name":"collides","type":"bool","value":true}]},{"id":41,"properties":[{"name":"collides","type":"bool","value":true}]},{"id":42,"properties":[{"name":"collides","type":"bool","value":true}]},{"id":43,"properties":[{"name":"collides","type":"bool","value":true}]},{"id":44,"properties":[{"name":"collides","type":"bool","value":true}]},{"id":45,"properties":[{"name":"collides","type":"bool","value":true}]},{"id":46,"properties":[{"name":"collides","type":"bool","value":true}]},{"id":47,"properties":[{"name":"collides","type":"bool","value":true}]},{"id":48,"properties":[{"name":"collides","type":"bool","value":true}]},{"id":49,"properties":[{"name":"collides","type":"bool","value":true}]}]}]}